X: 42643
T: Whiskey In A Pint Glass
R: polka
M: 2/4
K: Gmajor
|:Bc BA|GE E (3D/E/F/|GG GA|1 d/e/d/c/ Bd/c/:|2 B/d/B/A/ G2||
|:g>a ge|dB Bd|ea ag/a/|ba ae|
fg fe|de dc|1 B/c/B/A/ G/A/G/A/|BG Gd:|2 B/c/B/A/ d/e/d/c/|BG G2||

